X:1
T:Title
%%score 1 { 2 | 3 }
L:1/8
Q:1/4=95
M:3/4
K:G
V:1 treble nm="Grand Piano, Staff 1"
V:2 bass nm="Choir Pad, Sarah, CM"
V:3 bass 
V:1
 [B,D][B,D] [B,G] [DB]3 | [Ec][DB]- [DB]/[DA]/ [DA]3 | [CD][CD] [CF] [CA]3- | [CA] [DB]2 [B,G]3 | %4
w: By~Charles~Hutchinson~Gabriel,~1901 * * *||||
 [B,D][B,D] [B,G] [DB]3 | [=Fd][Ed]- [Ed]/[Ec]/ [Ec]3- | [Ec] [Ec]2 [DB]3 | [DG][DF] [DA] [DG]3- | %8
w: ||||
 [DG]4 z2 |] %9
w: |
V:2
 G,G, G, G,3 | G,G,- G,/F,/ F,3 | F,F, A, F,3- | F, F,2 G,3 | G,G, G, G,3 | G,G,- G,/G,/ G,3- | %6
 G, G,2 G,3 | B,A, C B,3- | B,4 z2 |] %9
V:3
 G,,G,, G,, G,,3 | G,,D,- D,/D,/ D,3 | D,D, D, D,3- | D, D,2 G,,3 | z6 | B,,C,- C,/C,/ C,3- | %6
 C, C,2 D,3 | D,D, D, G,,3- | G,,4 z2 |] %9

